X: 15542
T: Glenties, The
R: mazurka
M: 3/4
K: Dmajor
de|f2 fe dB|AF A2 FA|GE G2 EG|FD F2 de|
f2 fe dB|AF A2 FA|B2 e2 c2|d2 d2 de:|
f2 fa gf|g2 g2 gf|e2 eg fe|f2 f2 de|
f2 fa gf|g2 g2 gf|e2 eg fe|d2 d2 de:|

